src/assets/outline/JavaScript.svg

<svg width="24" height="24" viewBox="0 0 24 24"  xmlns="http://www.w3.org/2000/svg">
<path d="M12 22.71C11.84 22.71 11.68 22.69 11.52 22.64L5.44 20.9C4.75 20.7 4.25999 20.12 4.17999 19.41L2.38 3.19C2.33 2.7 2.48 2.2 2.82 1.83C3.15 1.46 3.62999 1.25 4.11999 1.25H19.89C20.39 1.25 20.86 1.46 21.19 1.83C21.52 2.2 21.68 2.7 21.63 3.19L19.83 19.41C19.75 20.12 19.26 20.7 18.57 20.9L12.49 22.64C12.32 22.69 12.16 22.71 12 22.71ZM4.11999 2.75C4.01999 2.75 3.95999 2.8 3.92999 2.83C3.89999 2.86 3.85999 2.93 3.86999 3.02L5.66998 19.24C5.67998 19.34 5.74997 19.43 5.84997 19.45L11.93 21.19C11.98 21.2 12.02 21.2 12.07 21.19L18.15 19.45C18.25 19.42 18.32 19.34 18.33 19.24L20.13 3.02C20.14 2.92 20.09 2.86 20.07 2.83C20.04 2.8 19.98 2.75 19.88 2.75H4.11999Z" />
<path d="M10.6198 16.7398C10.5498 16.7398 10.4798 16.7298 10.4098 16.7098L7.28983 15.8098C6.88983 15.6898 6.65988 15.2798 6.77988 14.8798C6.88988 14.4798 7.30987 14.2598 7.70987 14.3698L9.86985 14.9898V7.00977C9.86985 6.59977 10.2098 6.25977 10.6198 6.25977C11.0298 6.25977 11.3698 6.59977 11.3698 7.00977V15.9798C11.3698 16.2198 11.2599 16.4398 11.0699 16.5798C10.9399 16.6798 10.7798 16.7398 10.6198 16.7398Z" />
<path d="M12.9001 16.7501C12.5601 16.7501 12.2601 16.52 12.1701 16.18C12.0701 15.78 12.3101 15.3701 12.7201 15.2701L15.7501 14.51V12.8101L13.4601 13.1401C13.2401 13.1701 13.0301 13.1101 12.8601 12.9601C12.7001 12.8201 12.6001 12.6101 12.6001 12.3901V7.44006C12.6001 7.07006 12.8701 6.75005 13.2401 6.70005L16.3901 6.25005C16.8001 6.19005 17.1801 6.48005 17.2401 6.89005C17.3001 7.30005 17.0101 7.68006 16.6001 7.74006L14.0901 8.10006V11.5301L16.3801 11.2C16.6001 11.17 16.8101 11.2301 16.9801 11.3801C17.1401 11.5201 17.2401 11.7301 17.2401 11.95V15.1001C17.2401 15.4401 17.0101 15.7401 16.6701 15.8301L13.0701 16.73C13.0201 16.74 12.9601 16.7501 12.9001 16.7501Z" />
</svg>

<?xml version="1.0" encoding="UTF-8"?>
<svg width="24" height="24" viewBox="0 0 24 24" xmlns="http://www.w3.org/2000/svg">
 <path d="m12 22.71c-0.16 0-0.32-0.02-0.48-0.07l-6.08-1.74c-0.69-0.2-1.18-0.78-1.26-1.49l-1.8-16.22c-0.05-0.49 0.1-0.99 0.44-1.36 0.33-0.37 0.80999-0.58 1.3-0.58h15.77c0.5 0 0.97 0.21 1.3 0.58s0.49 0.87 0.44 1.36l-1.8 16.22c-0.08 0.71-0.57 1.29-1.26 1.49l-6.08 1.74c-0.17 0.05-0.33 0.07-0.49 0.07zm-7.88-19.96c-0.1 0-0.16 0.05-0.19 0.08s-0.07 0.1-0.06 0.19l1.8 16.22c0.01 0.1 0.07999 0.19 0.17999 0.21l6.08 1.74c0.05 0.01 0.09 0.01 0.14 0l6.08-1.74c0.1-0.03 0.17-0.11 0.18-0.21l1.8-16.22c0.01-0.1-0.04-0.16-0.06-0.19-0.03-0.03-0.09-0.08-0.19-0.08h-15.76z"/>
 <path d="m10.62 16.74c-0.07 0-0.14-0.01-0.21-0.03l-3.12-0.9c-0.4-0.12-0.62995-0.53-0.50995-0.93 0.11-0.4 0.52999-0.62 0.92999-0.51l2.16 0.62v-7.98c0-0.41 0.33995-0.75 0.74995-0.75s0.75 0.34 0.75 0.75v8.97c0 0.24-0.1099 0.46-0.2999 0.6-0.13 0.1-0.2901 0.16-0.4501 0.16z"/>
 <path d="m12.9 16.75c-0.34 0-0.64-0.2301-0.73-0.5701-0.1-0.4 0.14-0.8099 0.55-0.9099l3.03-0.7601v-1.6999l-2.29 0.33c-0.22 0.03-0.43-0.03-0.6-0.18-0.16-0.14-0.26-0.35-0.26-0.57v-4.95c0-0.37 0.27-0.69001 0.64-0.74001l3.15-0.45c0.41-0.06 0.79 0.23 0.85 0.64s-0.23 0.79001-0.64 0.85001l-2.51 0.36v3.43l2.29-0.3301c0.22-0.03 0.43 0.0301 0.6 0.1801 0.16 0.14 0.26 0.35 0.26 0.5699v3.1501c0 0.34-0.23 0.64-0.57 0.73l-3.6 0.8999c-0.05 0.01-0.11 0.0201-0.17 0.0201z"/>
</svg>
